src/icons/svgs/24/check.svg

<svg width="24" height="24" viewBox="0 0 24 24" fill="none" xmlns="http://www.w3.org/2000/svg">
<path d="M21.6652 7.62662L9.93767 18.679C9.77383 18.9065 9.51082 19 9.24351 19C8.97619 19 8.71404 18.9048 8.51183 18.7143L2.30316 12.863C1.89895 12.4821 1.89895 11.8651 2.30316 11.4839C2.70737 11.1028 3.36208 11.103 3.76651 11.4839L9.24351 16.6473L20.238 6.28571C20.6422 5.90476 21.297 5.90476 21.7014 6.28571C22.1058 6.66665 22.1049 7.28123 21.6652 7.62662Z" fill="black"/>
</svg>

<svg width="24" height="24" viewBox="0 0 24 24" xmlns="http://www.w3.org/2000/svg">
    <path d="M21.665 7.627 9.938 18.679c-.164.228-.427.321-.694.321a1.06 1.06 0 0 1-.732-.286l-6.209-5.851a.936.936 0 0 1 0-1.38 1.08 1.08 0 0 1 1.464 0l5.477 5.164L20.238 6.286a1.08 1.08 0 0 1 1.463 0c.405.38.404.995-.036 1.34z"/>
</svg>
